X: 41227
T: Trotting To Larne
R: slip jig
M: 9/8
K: Dmajor
A2 f A2 f fed|A2 f A2 f fed|B2 d G2 B dcB|A2 F Ade fdb,|
A2 f A2 f fed|B2 g B2 g gfe|c2 e A2 a bag|1 fgf edc d2B:|2 fgf edc d2c||
|:~B3 AGF ~A3|ABF AGF Adc|~B3 AGF A2 f|gfe efd cBA|
A df d2 A ded|Bdg d2 B ded|cea g2 e bag|1 fgf edc d2c:|2 fgf edc d2B||

